static/images/flogo-HexRBG-Wht-58.svg

<svg viewBox="0 0 58 58" xmlns="http://www.w3.org/2000/svg"><path d="m53.85 0h-50.7a3.15 3.15 0 0 0 -3.15 3.15v50.7a3.15 3.15 0 0 0 3.15 3.15h27.3v-22h-7.45v-8.67h7.41v-6.33c0-7.37 4.49-11.38 11.06-11.38a62.15 62.15 0 0 1 6.68.38v7.69h-4.54c-3.57 0-4.26 1.69-4.26 4.18v5.5h8.55l-1.11 8.63h-7.44v22h14.5a3.15 3.15 0 0 0 3.15-3.15v-50.7a3.15 3.15 0 0 0 -3.15-3.15z" fill="#fff"/></svg>

<svg id="Layer_1" data-name="Layer 1" xmlns="http://www.w3.org/2000/svg" viewBox="0 0 58 58"><defs><style>.cls-1{fill:#fff;}</style></defs><title>flogo-HexRBG-Wht-58</title><path class="cls-1" d="M53.85,0H3.15A3.15,3.15,0,0,0,0,3.15v50.7A3.15,3.15,0,0,0,3.15,57h27.3V35H23V26.33h7.41V20c0-7.37,4.49-11.38,11.06-11.38A62.15,62.15,0,0,1,48.15,9v7.69H43.61c-3.57,0-4.26,1.69-4.26,4.18v5.5H47.9L46.79,35H39.35V57h14.5A3.15,3.15,0,0,0,57,53.85V3.15A3.15,3.15,0,0,0,53.85,0Z"/></svg>
